source/img/icon-home-black.svg

<svg width="16" height="16" viewBox="0 0 16 16" fill="none" xmlns="http://www.w3.org/2000/svg">
<path d="M14.7649 7.21993L8.48352 1.19826C8.20782 0.933905 7.79206 0.933934 7.51646 1.19823L1.2351 7.21996C1.01425 7.43169 0.941294 7.75792 1.04919 8.05104C1.15712 8.34416 1.41989 8.53354 1.71867 8.53354H2.72191V14.5668C2.72191 14.806 2.90626 15 3.13363 15H6.57658C6.80394 15 6.98829 14.806 6.98829 14.5668V10.9036H9.01177V14.5668C9.01177 14.806 9.19613 15 9.42349 15H12.8663C13.0936 15 13.278 14.8061 13.278 14.5668V8.53354H14.2814C14.5802 8.53354 14.843 8.34413 14.9509 8.05104C15.0587 7.75789 14.9857 7.43169 14.7649 7.21993Z" fill="#0E1823"/>
<path d="M13.909 1.33533H10.749L14.3795 4.63644V1.80583C14.3795 1.54598 14.1689 1.33533 13.909 1.33533Z" fill="#0E1823"/>
</svg>

<svg width="16" height="16" fill="none" xmlns="http://www.w3.org/2000/svg"><path d="M14.765 7.22L8.484 1.198a.689.689 0 00-.968 0L1.236 7.22a.777.777 0 00-.187.831c.108.293.37.483.67.483h1.003v6.033c0 .239.184.433.412.433h3.443a.423.423 0 00.411-.433v-3.663h2.024v3.663c0 .239.184.433.411.433h3.443a.423.423 0 00.412-.433V8.534h1.003c.3 0 .562-.19.67-.483a.778.778 0 00-.186-.831zm-.856-5.885h-3.16l3.63 3.301v-2.83a.47.47 0 00-.47-.47z" fill="#0E1823"/></svg>
